X:1
T:A Boy's Lament for His Dragon
M:C|
L:1/8
Q:80
C:Arr. Hamish Moore
S:March
K:HP
|: c/2B/2 | \
{g}A{Gdc}d{gdG}de/2f/2 | \
g/2f/2e/2d/2f2 |
gB{gBd}Bc/2d/2 | \
{gef}e/2f/2e/2d/2cB | \
A{Gdc}d{gdG}de/2f/2 |
g/2f/2e/2d/2f2 | \
fBf/2e/2d/2c/2 | \
{Gdc}d2{gdG}d ::
{gef}e/2f/2 | \
{ag}a2Ad | \
{gBd}B{e}G{d}A3/2B/2 |
A{Gdc}dA{Gdc}d | \
e/2d/2c/2B/2Ae/2f/2 | \
{ag}a2Ad |
{gBd}B{e}G{d}A3/2B/2 | \
A{Gdc}de/2d/2c/2B/2 | \
{Gdc}d2{gdG}d :|
